X: 125
T: No_82_Dance_Inside_the_Underwater_Snake.krn
N: Derived from No_82_Dance_Inside_the_Underwater_Snake.krn
%%abc-version 2.0
%%abcx-abcm2ps-target-version 5.9.1 (29 Sep 2008)
%%abc-creator hum2abc beta
%%abcx-conversion-date 2019/03/15 08:35:45
%%humdrum-veritas 780081587
%%humdrum-veritas-data 1137158811
%%linebreak <none>
%%barnumbers 0
L: 1/8
M: 2/4
K: B clef=bass
[K:clef=bass][M:2/4]C4 [I:setbarnb 2]| 
CB, B,B, | 
B,2z2 | 
CCB,2 | 
B,B, F,F, | 
F,F,/F,/ F,F,/ z/ | 
G,F,/F,/ F,F,/ z/ | 
G,F,/F,/ F,F,/ z/ | 
G,F,/F,/ F,F,/ z/ | 
G,F,/F,/ F,F,/ z/ :|]  



